art/star_hollow_spacing.svg

<svg enable-background="new 0 0 21.775 20.762" height="24" viewBox="0 0 24 24.000001" width="24" xmlns="http://www.w3.org/2000/svg"><path d="m11.99898 4.3891397c.02388.017338.07623.067425.131327.1859009l1.707245 3.6274758c.305816.6511348 1.083674 1.2435133 1.766939 1.3465776l3.815818.58082c.137755.02119.200204.06357.208469.06357h.000918c0 .0183-.02296.09247-.128571.199386l-2.763368 2.82319c-.495.506652-.791633 1.465053-.675 2.17976l.652959 3.987719c.0248.150262.0028.225393-.0101.230209-.02296 0-.09-.0077-.202959-.06839l-3.410819-1.883088c-.297552-.16471-.686021-.254289-1.092858-.254289s-.796225.09054-1.092857.254289l-3.4126543 1.882126c-.1129592.06068-.18.06839-.2057143.07898-.00918-.01541-.031224-.09054-.00735-.240804l.652041-3.987719c.1175541-.715665-.1790787-1.673102-.6749972-2.179755l-2.760613-2.823189c-.1046939-.105954-.1294898-.180122-.1340817-.180122.00918-.01445.070714-.05876.2158164-.08091l3.8139807-.5808198c.6860206-.1040275 1.4620412-.696406 1.7687764-1.3475408l1.707245-3.6274758c.0551-.1184757.107449-.1704894.130408-.1859009m0-.3891397c-.167143 0-.334286.1348504-.460102.403588l-1.7072454 3.628439c-.2534694.5394016-.9247961 1.0508699-1.491429 1.1365962l-3.814899.5808199c-.5675512.08669-.6952043.5008729-.284694.9198729l2.7615314 2.823189c.4105104.419963.6667349 1.247366.569388 1.838781l-.652041 3.986756c-.070714.429595.086326.681958.3719388.681958.1083674 0 .2341838-.0366.3737757-.112696l3.4135725-1.88309c.253469-.139666.587755-.208055.921122-.208055.334286 0 .66949.06935.922042.208055l3.413572 1.88309c.137755.07609.265408.112696.373775.112696.285613 0 .441735-.252363.371939-.681958l-.652959-3.986756c-.09643-.591415.159796-1.419782.568469-1.838781l2.763369-2.823189c.409592-.419.281938-.8331833-.285613-.9198729l-3.814899-.5808199c-.566633-.0857263-1.238878-.5971946-1.491429-1.1365962l-1.707245-3.628439c-.127653-.2687376-.293878-.403588-.461939-.403588z" fill="#777" stroke-width=".940525"/></svg>

<?xml version="1.0" encoding="UTF-8" standalone="no"?>
<svg
   xmlns:dc="http://purl.org/dc/elements/1.1/"
   xmlns:cc="http://creativecommons.org/ns#"
   xmlns:rdf="http://www.w3.org/1999/02/22-rdf-syntax-ns#"
   xmlns:svg="http://www.w3.org/2000/svg"
   xmlns="http://www.w3.org/2000/svg"
   xmlns:sodipodi="http://sodipodi.sourceforge.net/DTD/sodipodi-0.dtd"
   xmlns:inkscape="http://www.inkscape.org/namespaces/inkscape"
   version="1.1"
   id="Ebene_1"
   x="0px"
   y="0px"
   width="24"
   height="24"
   viewBox="0 0 24 24.000001"
   enable-background="new 0 0 21.775 20.762"
   xml:space="preserve"
   sodipodi:docname="star_hollow_spacing.svg"
   inkscape:version="1.0.2 (e86c8708, 2021-01-15)"><metadata
   id="metadata44"><rdf:RDF><cc:Work
       rdf:about=""><dc:format>image/svg+xml</dc:format><dc:type
         rdf:resource="http://purl.org/dc/dcmitype/StillImage" /><dc:title></dc:title></cc:Work></rdf:RDF></metadata><defs
   id="defs42" /><sodipodi:namedview
   pagecolor="#ffffff"
   bordercolor="#666666"
   borderopacity="1"
   objecttolerance="10"
   gridtolerance="10"
   guidetolerance="10"
   inkscape:pageopacity="0"
   inkscape:pageshadow="2"
   inkscape:window-width="1069"
   inkscape:window-height="788"
   id="namedview40"
   showgrid="false"
   inkscape:zoom="16"
   inkscape:cx="10.8875"
   inkscape:cy="10.381"
   inkscape:window-x="0"
   inkscape:window-y="23"
   inkscape:window-maximized="0"
   inkscape:current-layer="Ebene_1" />
<path
   fill="#777777"
   d="m 11.99898,4.3891397 c 0.02388,0.017338 0.07623,0.067425 0.131327,0.1859009 l 1.707245,3.6274758 c 0.305816,0.6511348 1.083674,1.2435133 1.766939,1.3465776 l 3.815818,0.58082 c 0.137755,0.02119 0.200204,0.06357 0.208469,0.06357 9.18e-4,0 9.18e-4,0 9.18e-4,0 0,0.0183 -0.02296,0.09247 -0.128571,0.199386 l -2.763368,2.82319 c -0.495,0.506652 -0.791633,1.465053 -0.675,2.17976 l 0.652959,3.987719 c 0.0248,0.150262 0.0028,0.225393 -0.0101,0.230209 -0.02296,0 -0.09,-0.0077 -0.202959,-0.06839 l -3.410819,-1.883088 c -0.297552,-0.16471 -0.686021,-0.254289 -1.092858,-0.254289 -0.406837,0 -0.796225,0.09054 -1.092857,0.254289 l -3.4126543,1.882126 c -0.1129592,0.06068 -0.18,0.06839 -0.2057143,0.07898 -0.00918,-0.01541 -0.031224,-0.09054 -0.00735,-0.240804 l 0.652041,-3.987719 C 8.0499995,14.679188 7.7533667,13.721751 7.2574482,13.215098 L 4.4968352,10.391909 C 4.3921413,10.285955 4.3673454,10.211787 4.3627535,10.211787 v 0 c 0.00918,-0.01445 0.070714,-0.05876 0.2158164,-0.08091 L 8.3925506,9.5500572 C 9.0785712,9.4460297 9.8545918,8.8536512 10.161327,8.2025164 l 1.707245,-3.6274758 c 0.0551,-0.1184757 0.107449,-0.1704894 0.130408,-0.1859009 M 11.99898,4 C 11.831837,4 11.664694,4.1348504 11.538878,4.403588 L 9.8316326,8.032027 C 9.5781632,8.5714286 8.9068365,9.0828969 8.3402036,9.1686232 l -3.814899,0.5808199 c -0.5675512,0.08669 -0.6952043,0.5008729 -0.284694,0.9198729 l 2.7615314,2.823189 c 0.4105104,0.419963 0.6667349,1.247366 0.569388,1.838781 L 6.919489,19.318042 C 6.848775,19.747637 7.005815,20 7.2914278,20 7.3997952,20 7.5256116,19.9634 7.6652035,19.887304 l 3.4135725,-1.88309 c 0.253469,-0.139666 0.587755,-0.208055 0.921122,-0.208055 0.334286,0 0.66949,0.06935 0.922042,0.208055 l 3.413572,1.88309 C 16.473267,19.963394 16.60092,20 16.709287,20 c 0.285613,0 0.441735,-0.252363 0.371939,-0.681958 l -0.652959,-3.986756 c -0.09643,-0.591415 0.159796,-1.419782 0.568469,-1.838781 l 2.763369,-2.823189 c 0.409592,-0.419 0.281938,-0.8331833 -0.285613,-0.9198729 L 15.659593,9.1686232 C 15.09296,9.0828969 14.420715,8.5714286 14.168164,8.032027 L 12.460919,4.403588 C 12.333266,4.1348504 12.167041,4 11.99898,4 Z"
   id="path37"
   style="stroke-width:0.940525" />
</svg>
